www/assets/icons/garage.svg

<svg xmlns="http://www.w3.org/2000/svg" width="24" height="24" viewBox="0 0 24 24" fill='currentColor'><path d="M15 14a1 1 0 1 0 0-2 1 1 0 0 0 0 2m-6 0a1 1 0 1 0 0-2 1 1 0 0 0 0 2m-.67-6.5-.66 2h8.66l-.66-2z"/><path d="M20 2H4c-1.1 0-2 .9-2 2v16c0 1.1.9 2 2 2h16c1.1 0 2-.9 2-2V4c0-1.1-.9-2-2-2m-1 15.69c0 .45-.35.81-.78.81h-.44c-.44 0-.78-.36-.78-.81V16.5H7v1.19c0 .45-.35.81-.78.81h-.44c-.43 0-.78-.36-.78-.81v-6.5c.82-2.47 1.34-4.03 1.56-4.69.05-.16.12-.29.19-.4.02-.02.03-.04.05-.06.38-.53.92-.54.92-.54h8.56s.54.01.92.53c.02.03.03.05.05.07.07.11.14.24.19.4.22.66.74 2.23 1.56 4.69z"/></svg>

<svg width="24" height="24" viewBox="0 0 24 24" xmlns="http://www.w3.org/2000/svg" fill='currentColor'><path d="M15 14C15.5523 14 16 13.5523 16 13C16 12.4477 15.5523 12 15 12C14.4477 12 14 12.4477 14 13C14 13.5523 14.4477 14 15 14Z"/><path d="M9 14C9.55228 14 10 13.5523 10 13C10 12.4477 9.55228 12 9 12C8.44772 12 8 12.4477 8 13C8 13.5523 8.44772 14 9 14Z"/><path d="M8.33 7.5L7.67 9.5H16.33L15.67 7.5H8.33Z"/><path d="M20 2H4C2.9 2 2 2.9 2 4V20C2 21.1 2.9 22 4 22H20C21.1 22 22 21.1 22 20V4C22 2.9 21.1 2 20 2ZM19 17.69C19 18.14 18.65 18.5 18.22 18.5H17.78C17.34 18.5 17 18.14 17 17.69V16.5H7V17.69C7 18.14 6.65 18.5 6.22 18.5H5.78C5.35 18.5 5 18.14 5 17.69V11.19C5.82 8.72 6.34 7.16 6.56 6.5C6.61 6.34 6.68 6.21 6.75 6.1C6.77 6.08 6.78 6.06 6.8 6.04C7.18 5.51 7.72 5.5 7.72 5.5H16.28C16.28 5.5 16.82 5.51 17.2 6.03C17.22 6.06 17.23 6.08 17.25 6.1C17.32 6.21 17.39 6.34 17.44 6.5C17.66 7.16 18.18 8.73 19 11.19V17.69Z"/></svg>
